Sources/FrostedUI/Resources/Icons.xcassets/lilstNumber24.imageset/lilst-number-24.svg

<svg width="24" height="24" viewBox="0 0 24 24" fill="none" xmlns="http://www.w3.org/2000/svg" data-fui-icon="true">
  <path
    d="M18.25 3C19.7688 3 21 4.23122 21 5.75V18.25C21 19.7688 19.7688 21 18.25 21H5.75C4.23122 21 3 19.7688 3 18.25V5.75C3 4.23122 4.23122 3 5.75 3H18.25ZM5.75 4.5C5.05964 4.5 4.5 5.05964 4.5 5.75V18.25C4.5 18.9404 5.05964 19.5 5.75 19.5H18.25C18.9404 19.5 19.5 18.9404 19.5 18.25V5.75C19.5 5.05964 18.9404 4.5 18.25 4.5H5.75ZM7.73926 12.75C8.63922 12.75 9.55762 13.404 9.55762 14.4268C9.55737 15.0014 9.26928 15.4234 8.96094 15.7139C8.81273 15.8534 8.64497 15.9761 8.47949 16.084H9C9.41421 16.084 9.75 16.4198 9.75 16.834C9.74966 17.2479 9.414 17.584 9 17.584H6.5C6.11172 17.584 5.79237 17.2883 5.75391 16.9102L5.75 16.834C5.75 16.2562 6.09497 15.864 6.38281 15.626C6.66275 15.3946 7.02432 15.2 7.28418 15.0527C7.58174 14.8841 7.79186 14.7546 7.93262 14.6221C8.05562 14.5062 8.05759 14.4519 8.05762 14.4268C8.05762 14.416 8.05468 14.382 8.00391 14.3379C7.95146 14.2924 7.85996 14.25 7.73926 14.25C7.62958 14.25 7.49547 14.296 7.36035 14.375C7.29816 14.4114 7.24746 14.4483 7.21387 14.4746C7.19756 14.4874 7.18553 14.4969 7.17969 14.502L7.18066 14.501C7.17999 14.5 7.15976 14.4781 6.66699 13.9551C6.18691 13.4455 6.15439 13.4107 6.15234 13.4082H6.15332V13.4072L6.15527 13.4062C6.15636 13.4052 6.15785 13.4036 6.15918 13.4023C6.16186 13.3999 6.16532 13.3968 6.16895 13.3936C6.17642 13.3868 6.18592 13.378 6.19727 13.3682C6.22011 13.3484 6.25121 13.3226 6.28906 13.293C6.36433 13.2341 6.47161 13.1572 6.60352 13.0801C6.85713 12.9319 7.25907 12.75 7.73926 12.75ZM17.5 14.417C17.9142 14.417 18.25 14.7528 18.25 15.167C18.2498 15.5811 17.9141 15.917 17.5 15.917H11.833C11.419 15.9168 11.0832 15.581 11.083 15.167C11.083 14.7529 11.4189 14.4172 11.833 14.417H17.5ZM7.18066 14.501C6.8792 14.7846 6.40501 14.77 6.12109 14.4688C5.83719 14.1673 5.85114 13.6932 6.15234 13.4092L7.18066 14.501ZM7.73633 6.55273C7.96538 6.3924 8.26468 6.37291 8.5127 6.50195C8.76067 6.63112 8.91699 6.88738 8.91699 7.16699V10.5C8.91683 10.914 8.58095 11.2498 8.16699 11.25C7.75288 11.25 7.41716 10.9141 7.41699 10.5V8.60645L6.92969 8.94824C6.59047 9.1853 6.12321 9.10265 5.88574 8.76367C5.64824 8.42438 5.7311 7.95632 6.07031 7.71875L7.73633 6.55273ZM17.5 8.08398C17.9142 8.08398 18.25 8.41977 18.25 8.83398C18.2497 9.24791 17.914 9.58398 17.5 9.58398H11.833C11.4192 9.58381 11.0833 9.2478 11.083 8.83398C11.083 8.41988 11.4189 8.08416 11.833 8.08398H17.5Z"
    fill="currentColor"
  />
</svg>

<svg xmlns="http://www.w3.org/2000/svg" width="24" height="24" fill="none" data-fui-icon="true" viewBox="0 0 24 24"><path fill="currentColor" d="M18.25 3A2.75 2.75 0 0 1 21 5.75v12.5A2.75 2.75 0 0 1 18.25 21H5.75A2.75 2.75 0 0 1 3 18.25V5.75A2.75 2.75 0 0 1 5.75 3zM5.75 4.5c-.69 0-1.25.56-1.25 1.25v12.5c0 .69.56 1.25 1.25 1.25h12.5c.69 0 1.25-.56 1.25-1.25V5.75c0-.69-.56-1.25-1.25-1.25zm1.99 8.25c.9 0 1.818.654 1.818 1.677 0 .574-.289.996-.597 1.287-.148.14-.316.262-.482.37H9a.75.75 0 0 1 0 1.5H6.5a.75.75 0 0 1-.746-.674l-.004-.076c0-.578.345-.97.633-1.208.28-.231.641-.426.901-.573.298-.169.508-.298.649-.43.123-.117.125-.171.125-.196 0-.011-.003-.045-.054-.09a.4.4 0 0 0-.265-.087.8.8 0 0 0-.379.125 1.3 1.3 0 0 0-.18.127v-.001c0-.001-.02-.023-.513-.546l-.515-.547h.001l.002-.002.004-.004.01-.008.028-.026.092-.075c.075-.059.183-.136.315-.213.253-.148.655-.33 1.135-.33m9.76 1.667a.75.75 0 0 1 0 1.5h-5.667a.75.75 0 0 1 0-1.5zm-10.32.084a.75.75 0 0 1-1.028-1.092zm.556-7.948a.75.75 0 0 1 1.181.614V10.5a.75.75 0 0 1-1.5 0V8.606l-.487.342a.75.75 0 0 1-.86-1.23zM17.5 8.084a.75.75 0 0 1 0 1.5h-5.667a.75.75 0 0 1 0-1.5z"/></svg>
